X:1
T:Il vostro divo aspetto
T:Luca Marenzio
T:Source : Il secondo Libro delle canzonette alla Napilitana a tre voci---Venetia---G.Vincenti---1587. Editor : André Vierendeels (30/04/17).
T:Notes : Original clefs : C1, C2, F4 Editorial accidentals above the staff "Seconda impressione" Music collected by Attilio Gualtieri m 9 in S 1 : second "A" notated as quarter in original print m 18 in B :  first "E" non dotted in original print m 21 in S 1 : "B"  missing in original print
T:Il vostro divo aspetto
T:©
T:©
C:Luca Marenzio
Z:©
%%score [ 1 2 3 ]
L:1/8
Q:1/4=120
M:4/4
K:C
V:1 treble nm="Soprano 1" snm="S 1"
V:2 treble nm="Soprano 2" snm="S 2"
V:3 bass nm="Bass" snm="B"
V:1
"^1)" z2 c2 B3 A | G2 B2 A4 | A2 B3 B B2 | c2 d2 e2 f2- | ff e2 d4 | c8 :: GABc d2 G2 | %7
w: Il vo- stro|di- vo'as- pet-|to, veg- gio m'ha|fat- to'à vi don-|* na sug- get-|to,|stra- * * * * li|
w: In vi- so'An-|ge- li- ca-|to, fa ch'io sia|ogn'hor fe- ri- to'ar-|* so'e le- ga-|to,|ahi _ _ _ _ per|
 c3 B/A/ B3 A/G/ | A4 A2 d2- | d2 B4 G2- | G2 c3 B AG | F2 DE FGAB | c2 e4 dc | B4 B4 | e8 | %15
w: lac- * * * * *|* ci ca-|* te- ne|_ fiamm' _ _ _|_ e _ _ _ _ _|_ fo- * *|* co,|tor-|
w: ce- * * lar _ _|ad al- tr'il|_ mio do-|* lo- * * *|||* re,|tal|
 d6 d2 | c6 c2 | B8 | A4 d4- | d8 | B4 c4 | B8 | A8 |] %23
w: men- ta-|no'il mio|cor|à po-||co à|po-|co.|
w: vol- ta|can- to,|che|mi pian-||ge il|co-|re|
V:2
"^2)""^1)" z2 A2 G3 F | E2 G2 ^F4 | ^F2 G3 G ^G2 | A2 B2 c2 A2- | AA c2 B4 | c8 :: B4 B4 | %7
w: Il vo- stro|di- vo'as- pet-|to, veg- gio m'hà|fat- to'à voi don-|* na sug- get-|to,|stra- li|
w: E per mio|mag- gior ma-|le, Giu- bi- lo'in|ter- ra'e non v'e|_ pa- na'e- gua-|le,|che giun-|
 A3 G/A/ G3 F/E/ | ^F4 F4 | G4 G4 | E6 A2- | AGFE DEFD | E2 c2 c2 BA | ^G4 G4 | z4 c4- | c4 B4- | %16
w: lac- * * * * *|* ci|ca- te-|ne fiamm'|_ _ _ _ _ _ _ _|* e fo- * *|* co,|tor-|* men-|
w: ger _ _ pos- * *|s'al- la|mia tri-|sta sor-||te, e'l vit- * *|* to,|e'l|_ vit-|
 B2 B2 A4- | A2 A2 G4- | G4 ^F4 | ^F8 | ^G4 A4- | A2 ^G^F G4 | A8 |] %23
w: * ta- no'il|_ mio cor|_ à|po-|co'à po-||co.|
w: * to'e te-|* m'an- zi|_ so-|spet-|to'e mor-||te.|
V:3
"^3)""^1)""^4)" A,,4 E,3 D, | C,2 G,,2 D,4 | D,2 G,3 G, E,2 | A,2 G,2 C,2 D,2- | D,D, E,2 G,4 | %5
w: Il vo- stro|di- vo'as- pet-|to, veg- gio m'ha|fat- to'à voi don-|* na sug- get-|
w: Ri- po- si|dam- mi hor-|mai, O dol- ce'a-|ni- ma mia: Deh|_ non piu gua-|
 C,8 :: G,4 G,4 | F,3 G,/F,/ E,3 D,/C,/ | D,4 D,4 | G,4 E,4 | C,4 A,,4 | D,8 | C,6 D,2 | E,4 E,4 | %14
w: to,|stra li|lac- * * * * *|* ci|ca- te-|ne fiammm'|e|fo- *|* co,|
w: i,|non far|ch'a- * * man- * *|* do|dis- pe-|ra- to|mo-|ra: e|se vuoi,|
 A,8 | G,6 G,2 | F,6 F,2 | E,6 E,2 | D,8- | D,4 B,,4 | E,8- | E,8 | A,,8 |] %23
w: tor-|men- ta-|no'il mio|cor à|po-|* co'à|po-||co.|
w: e|se vuoi|que- sto|mor- l'al-|m'a|_ an-|cho-||ra|

